**kern	**kern
*part1	*part1
*staff2	*staff1
*I"Piano	*
*clefF4	*clefG2
*k[b-e-]	*k[b-e-]
=1	=1
4GG 4G	2.b-
4G 4B- 4d	.
4G 4B- 4d	.
=	=
4DD 4D	2a
4D 4F#X 4A 4c	.
4D 4G 4B-	4g
=	=
4DD 4D	2.f#X
4D 4F#X 4A 4c	.
4D 4F# 4A 4c	.
=	=
4FF#X 4F#X	2.dd
4D 4A 4c	.
4D 4A 4c	.
=	=
4DD 4D	2.cc
4D 4F#X 4A 4c	.
4D 4F# 4A 4c	.
=	=
4DD 4D	2b-
4D 4G 4B-	.
4D 4F#X 4A 4c	4a
=	=
4GG 4G	4.g
4G 4B- 4d	.
.	8gL
4G 4B- 4d	8b-
.	8ddJ
=	=
4GG 4G	2.gg
4G 4B- 4d	.
4G 4B- 4d	.
=	=
*-	*-
!!!system-decoration: {(s1,s2)}
